!!!OTL: IM WALDE STEHT EIN TANNENBAUM
!!!ARE: Europa, Mitteleuropa, Deutschland
!!!SCT: F0298
!!!YEM: Copyright 1995, estate of Helmut Schaffrath.
**kern
*ICvox
*Ivox
*M6/8
*k[b-]
*F:
{8c
=1
4f
8a
8cc
8bn
8cc
=2
4dd
8cc
4cc}
{8a
=3
4g
8cc
4ee
8dd
=4
2cc
8r}
{8g
=5
4g
8a
8b-
8a
8b-
=6
4dd
8cc
4cc}
{8a
=7
4cc
8b-
4g
8c
=8
2f
8r}
{8g
=9
4g
8a
8b-
8a
8b-
=10
4dd
8cc
4cc}
{8a
=11
4cc
8b-
4g
8c
=12
2f
8r}
==
!!!AGN: Jugend - Lied, Weihnachten
!!!ONB: ESAC (Essen Associative Code) Database: FINK
!!!AMT: compound duple
!!!AIN: vox
!!!EED: Helmut Schaffrath
!!!EEV: 1.0
*-
